src/assets/svg/investment-8.svg

<svg width="39" height="39" viewBox="0 0 39 39" fill="none" xmlns="http://www.w3.org/2000/svg">
<path fill-rule="evenodd" clip-rule="evenodd" d="M29 0C23.477 0 19 4.477 19 10V19C19 19.2652 19.1054 19.5196 19.2929 19.7071C19.4804 19.8946 19.7348 20 20 20H29C34.523 20 39 15.523 39 10C39 4.477 34.523 0 29 0ZM21 10C21 8.41775 21.4692 6.87103 22.3482 5.55544C23.2273 4.23984 24.4767 3.21447 25.9385 2.60896C27.4003 2.00346 29.0089 1.84504 30.5607 2.15372C32.1126 2.4624 33.538 3.22433 34.6569 4.34315C35.7757 5.46197 36.5376 6.88743 36.8463 8.43928C37.155 9.99113 36.9965 11.5997 36.391 13.0615C35.7855 14.5233 34.7602 15.7727 33.4446 16.6518C32.129 17.5308 30.5823 18 29 18H21V10ZM2 7.778C2 7.352 2.352 7 2.778 7H9C9.425 7 9.778 7.352 9.778 7.778C9.778 10.104 10.15 12.34 10.838 14.43C10.883 14.5685 10.8883 14.7169 10.8533 14.8583C10.8183 14.9997 10.7444 15.1284 10.64 15.23L6.215 19.655L6.545 20.302C9.201 25.524 13.479 29.782 18.695 32.454L19.343 32.786L23.769 28.36C23.8695 28.2598 23.9957 28.1893 24.1337 28.1563C24.2716 28.1233 24.4161 28.1291 24.551 28.173L24.561 28.176C26.7107 28.8822 28.9592 29.2414 31.222 29.24C31.648 29.24 32 29.592 32 30.018V36.222C31.9987 36.4279 31.9163 36.6251 31.7707 36.7707C31.6251 36.9163 31.4279 36.9987 31.222 37C15.082 37 2 23.919 2 7.778ZM2.778 5C2.04163 5.00132 1.33581 5.29443 0.815117 5.81512C0.294428 6.33581 0.00132179 7.04163 0 7.778C0 25.023 13.977 39 31.222 39C31.9584 38.9987 32.6642 38.7056 33.1849 38.1849C33.7056 37.6642 33.9987 36.9584 34 36.222V30.018C33.9987 29.2816 33.7056 28.5758 33.1849 28.0551C32.6642 27.5344 31.9584 27.2413 31.222 27.24C29.1744 27.2415 27.1396 26.9171 25.194 26.279C24.7056 26.1152 24.1811 26.0908 23.6796 26.2086C23.1781 26.3265 22.7194 26.5818 22.355 26.946L18.966 30.335C14.6186 27.9562 11.0436 24.3819 8.664 20.035L12.054 16.645C12.4179 16.2843 12.675 15.83 12.7969 15.3324C12.9188 14.8347 12.9009 14.3131 12.745 13.825L12.743 13.818L12.741 13.811C12.1001 11.8643 11.7749 9.82751 11.778 7.778C11.7767 7.04163 11.4836 6.33581 10.9629 5.81512C10.4422 5.29443 9.73637 5.00132 9 5H2.778ZM24 9H28V5H30V9H34V11H30V15H28V11H24V9Z" fill="#00C700"/>
</svg>

<svg xmlns="http://www.w3.org/2000/svg" width="39" height="39" fill="none"><path fill="#00C700" fill-rule="evenodd" d="M29 0c-5.523 0-10 4.477-10 10v9a1 1 0 0 0 1 1h9c5.523 0 10-4.477 10-10S34.523 0 29 0m-8 10a8 8 0 1 1 8 8h-8zM2 7.778C2 7.352 2.352 7 2.778 7H9c.425 0 .778.352.778.778 0 2.326.372 4.562 1.06 6.652a.78.78 0 0 1-.198.8l-4.425 4.425.33.647c2.656 5.222 6.934 9.48 12.15 12.152l.648.332 4.426-4.426a.77.77 0 0 1 .782-.187l.01.003a21.3 21.3 0 0 0 6.661 1.064c.426 0 .778.352.778.778v6.204a.783.783 0 0 1-.778.778C15.082 37 2 23.919 2 7.778M2.778 5A2.783 2.783 0 0 0 0 7.778C0 25.023 13.977 39 31.222 39A2.783 2.783 0 0 0 34 36.222v-6.204a2.783 2.783 0 0 0-2.778-2.778 19.3 19.3 0 0 1-6.028-.961 2.77 2.77 0 0 0-2.839.667l-3.389 3.389a25.94 25.94 0 0 1-10.302-10.3l3.39-3.39a2.78 2.78 0 0 0 .691-2.82l-.002-.007-.002-.007a19.2 19.2 0 0 1-.963-6.033A2.783 2.783 0 0 0 9 5zM24 9h4V5h2v4h4v2h-4v4h-2v-4h-4z" clip-rule="evenodd"/></svg>
